X:1
T:Merry Christmas to You All
T:Merry Christmas to You All
T:L. H. Parthemore
T:L. H. Parthemore, 1888
T:Public Domain Courtesy of the Cyber Hymnal™
C:L. H. Parthemore
Z:Public Domain
Z:Courtesy of the Cyber Hymnal™
%%score ( 1 2 ) ( 3 4 )
L:1/8
Q:1/4=105
M:4/4
K:A
V:1 treble 
V:2 treble 
V:3 bass 
V:4 bass 
V:1
 [CE]>[CE] | [Ec]2 [DB]2 [CA]2 [CE]2 | [DF]6 [DF]>[DF] | [CE]2 [EA]2 [EG]2 [EA]2 | %4
w: 1.~Mer- ry|Christ- mas to you|all, To the|friends both great and|
w: 2.~Lit- tle|girls and lit- tle|boys, All a-|glow with Christ- mas|
w: 3.~Hap- py,|ha- ppy Christ- mas|songs! Young and|old the strain pro-|
 [GB]6 [EB]>[EB] | [Ec]2 [DB]2 [CA]2 E2 | [DF]6 [FA]>[=FB] | [Ec]2 [Ec]2 [Ec]2 [EB]2 | [CA]6 || %9
w: small; Hap- py|Christ- mas car- ols|bring To the|Christ the new- born|king.|
w: joys, Now their|hap- py voic- es|raise, Sing- ing|songs of sweet- est|praise.|
w: long; Waft the|cho- rus to the|sky, Glo- ry|be to God most|high.|
"^Refrain" [CA]>[CA] | [Fd]2 [Fd]2 z2 [Fd]>[Fd] | [Ec]2 [Ec]2 z2 [Ac]>[Ac] | %12
w: |||
w: Mer- ry|Christ- mas, mer- ry|Christ- mas, Mer- ry|
w: |||
 [GB]2 [GB]2 [EA]2 [GB]2 | [Ac]6 [Ac]>[Ac] | [Ad]2 [Ad]2 z2 [Ad]>[Ad] | [Ac]2 [Ac]4 z2 | %16
w: ||||
w: Christ- mas ev- ery-|where; Mer- ry|Christ- mas, mer- ry|Christ- mas,|
w: ||||
 [GB]2 [GB]2 [Gc]2 [EB]2 | [EA]6 |] %18
w: ||
w: Ring- ing through the|air.|
w: ||
V:2
 x2 | x8 | x8 | x8 | x8 | x6 E2 | x8 | x8 | x6 || x2 | x8 | x8 | x8 | x8 | x8 | x8 | x8 | x6 |] %18
V:3
 [A,,A,]>[A,,A,] | [A,,A,]2 [A,,A,]2 [A,,A,]2 [A,,A,]2 | [D,A,]6 [D,A,]>[F,A,] | %3
 A,2 [A,C]2 [B,D]2 (CE) | [E,E]6 [E,G,]>[E,G,] | A,2 [E,G,]2 [F,A,]2 [C,A,]2 | %6
 [D,A,]6 [D,A,]>[D,A,] | [E,A,]2 [E,A,]2 [E,G,]2 [E,G,]2 | [A,,A,]6 || A,>A, | %10
 [D,A,]2 [D,A,]2 z2 [D,A,]>[D,A,] | [A,,A,]2 [A,,A,]2 z2 [A,,E]>[A,,E] | %12
 [E,E]2 [E,D]2 [E,C]2 [E,E]2 | [A,E]6 [A,E]>[A,E] | [D,F]2 [D,F]2 z2 [D,F]>[D,F] | %15
 [A,E]2 [A,E]4 z2 | [E,E]2 [E,E]2 [E,E]2 [E,D]2 | [A,,C]6 |] %18
V:4
 x2 | x8 | x8 | A,2 x2 A,2 x2 | x8 | A,2 x6 | x8 | x8 | x6 || A,>A, | x8 | x8 | x8 | x8 | x8 | x8 | %16
 x8 | x6 |] %18

